X: 21203
T: Katie's Lilt
R: jig
M: 6/8
K: Adorian
ABA A2 a|e2 d efg|dBG GAB|dBG GAB|
ABA A2 a|e2 d efg|dBG GAB|A3 A2:|
a^ga AAA|a^ga AAA|gfg GGG|gfg GGG|
ccc BBB|AAA a2 a|gfe dBG|A3 A2:|

